local/share/icons/dracula-icons-main/16/actions/view-sort.svg

<?xml version="1.0" encoding="UTF-8"?>
<svg xmlns="http://www.w3.org/2000/svg" xmlns:xlink="http://www.w3.org/1999/xlink" width="16" height="16" viewBox="0 0 16 16">
<path fill-rule="nonzero" fill="rgb(100%, 100%, 100%)" fill-opacity="1" d="M 2.910156 3.703125 L 3.175781 3.703125 L 3.175781 0.265625 L 2.910156 0.265625 Z M 2.910156 3.703125 "/>
<path fill-rule="nonzero" fill="rgb(100%, 100%, 100%)" fill-opacity="1" d="M 0.527344 0.265625 C 0.382812 0.265625 0.265625 0.382812 0.265625 0.527344 L 0.265625 1.058594 C 0.265625 1.203125 0.382812 1.324219 0.527344 1.324219 L 1.585938 1.324219 C 1.734375 1.324219 1.851562 1.203125 1.851562 1.058594 L 1.851562 0.527344 C 1.851562 0.382812 1.734375 0.265625 1.585938 0.265625 Z M 0.527344 0.527344 L 1.585938 0.527344 L 1.585938 1.058594 L 0.527344 1.058594 Z M 0.527344 0.527344 "/>
<path fill-rule="nonzero" fill="rgb(100%, 100%, 100%)" fill-opacity="1" d="M 0.527344 1.585938 C 0.382812 1.585938 0.265625 1.707031 0.265625 1.851562 L 0.265625 2.382812 C 0.265625 2.527344 0.382812 2.644531 0.527344 2.644531 L 1.585938 2.644531 C 1.734375 2.644531 1.851562 2.527344 1.851562 2.382812 L 1.851562 1.851562 C 1.851562 1.707031 1.734375 1.585938 1.585938 1.585938 Z M 0.527344 1.851562 L 1.585938 1.851562 L 1.585938 2.382812 L 0.527344 2.382812 Z M 0.527344 1.851562 "/>
<path fill-rule="nonzero" fill="rgb(100%, 100%, 100%)" fill-opacity="1" d="M 0.527344 2.910156 C 0.382812 2.910156 0.265625 3.027344 0.265625 3.175781 L 0.265625 3.703125 C 0.265625 3.851562 0.382812 3.96875 0.527344 3.96875 L 1.585938 3.96875 C 1.734375 3.96875 1.851562 3.851562 1.851562 3.703125 L 1.851562 3.175781 C 1.851562 3.027344 1.734375 2.910156 1.585938 2.910156 Z M 0.527344 3.175781 L 1.585938 3.175781 L 1.585938 3.703125 L 0.527344 3.703125 Z M 0.527344 3.175781 "/>
<path fill-rule="nonzero" fill="rgb(100%, 100%, 100%)" fill-opacity="1" d="M 3.042969 4.023438 L 2.117188 3.097656 L 2.304688 2.910156 L 2.910156 3.515625 L 2.910156 2.4375 L 3.175781 2.4375 L 3.175781 3.515625 L 3.78125 2.910156 L 3.96875 3.097656 Z M 3.042969 4.023438 "/>
</svg>

<svg width="16" height="16" version="1.1" viewBox="0 0 4.2333 4.2333" xmlns="http://www.w3.org/2000/svg">
 <style id="current-color-scheme" type="text/css">.ColorScheme-Text{color:#FFFFFF;}</style>
 <g class="ColorScheme-Text" style="fill:currentColor">
  <rect transform="scale(1,-1)" x="2.9104" y="-3.7041" width=".26458" height="3.4395" ry="6.3705e-8"/>
  <path d="m0.52916 0.26458c-0.14658 0-0.26458 0.118-0.26458 0.26458v0.52916c0 0.14658 0.118 0.26458 0.26458 0.26458h1.0583c0.14658 0 0.26458-0.118 0.26458-0.26458v-0.52916c0-0.14658-0.118-0.26458-0.26458-0.26458zm0 0.26458h1.0583v0.52916h-1.0583z"/>
  <path d="m0.52916 1.5875c-0.14658 0-0.26458 0.118-0.26458 0.26458v0.52916c0 0.14658 0.118 0.26458 0.26458 0.26458h1.0583c0.14658 0 0.26458-0.118 0.26458-0.26458v-0.52916c0-0.14658-0.118-0.26458-0.26458-0.26458zm0 0.26458h1.0583v0.52916h-1.0583z"/>
  <path d="m0.52916 2.9104c-0.14658 0-0.26458 0.118-0.26458 0.26458v0.52916c0 0.14658 0.118 0.26458 0.26458 0.26458h1.0583c0.14658 0 0.26458-0.118 0.26458-0.26458v-0.52916c0-0.14658-0.118-0.26458-0.26458-0.26458zm0 0.26458h1.0583v0.52916h-1.0583z"/>
  <path d="m3.0427 4.0235-0.92603-0.92603 0.18707-0.18707 0.60668 0.60668v-1.0811h0.26458v1.0811l0.60668-0.60668 0.18707 0.18707z"/>
 </g>
</svg>
